www/assets/icons/iso.svg

<svg xmlns="http://www.w3.org/2000/svg" width="24" height="24" viewBox="0 0 24 24" fill='currentColor'><path d="M19 3H5c-1.1 0-2 .9-2 2v14c0 1.1.9 2 2 2h14c1.1 0 2-.9 2-2V5c0-1.1-.9-2-2-2M5.5 7.5h2v-2H9v2h2V9H9v2H7.5V9h-2zM19 19H5L19 5zm-2-2v-1.5h-5V17z"/></svg>

<svg width="24" height="24" viewBox="0 0 24 24" xmlns="http://www.w3.org/2000/svg" fill='currentColor'><path d="M19 3H5C3.9 3 3 3.9 3 5V19C3 20.1 3.9 21 5 21H19C20.1 21 21 20.1 21 19V5C21 3.9 20.1 3 19 3ZM5.5 7.5H7.5V5.5H9V7.5H11V9H9V11H7.5V9H5.5V7.5ZM19 19H5L19 5V19ZM17 17V15.5H12V17H17Z"/></svg>
